!!!OTL: Landsknechtorden
!!!ARE: Europa, Mitteleuropa, Deutschland
!!!SCT: A0416A
!!!YEM: Copyright 1995, estate of Helmut Schaffrath.
**kern
*ICvox
*Ivox
*MFREI4/4
*k[]
*C:
=0
{1c
1e
1g
1g
1g
1g
1g
1g
1e
1f
1e}
=1
{1e
1e
1e
1e
1e
1e
2e
1e
1e
1d
1f
1e}
{1e
1e
1e
1e
1d
1c
1d}
{2G
=2
=3
2c
2c
2d
2d
=4
=5
2e
2c
4e
4d
4e
4f
=6
=7
1g
2r
2g
=8
=9
2g
2e
2f
2e
=10
=11
1d
1c}
==
!!!AGN: Romanze, Ballade, Lied, Kriegslied
!! Dresdner Codex M. 53 (16. Jh.)
!!!ONB: ESAC (Essen Associative Code) Database: ALTDEU
!!!AMT: irregular
!!!AIN: vox
!!!EED: Helmut Schaffrath
!!!EEV: 1.0
*-
